X: 2608
T: Baltighoran, The
R: slip jig
M: 9/8
K: Dmixolydian
|:A|F2 d FAd AFD|F2 d FAd c2 A|F2 d FAd AFD|E2 d BdB c2:|
|:A|F2 A AFd AFD|F2 A AFd c2 A|F2 A AFd AFD|E2 d BdB c2:|
|:e|d2 d d^cB AFD|d2 d def g2 e|d^cd B/c/dB AFD|E2 d BdB c2:|
|:A|F2 F G2 G AFD|F2 F GFG c2 A|F2 F G2 G AFD|E2 d B/^c/dB =c2:|

